src/assets/icons/shop.svg

<svg width="14" height="14" viewBox="0 0 14 14" fill="none" xmlns="http://www.w3.org/2000/svg">
<g id="shop">
<g clip-path="url(#clip0_295_4734)">
<path id="Vector" fill-rule="evenodd" clip-rule="evenodd" d="M3.35226 1.95545C3.29096 1.95545 3.23299 1.98332 3.19469 2.03118L1.25757 4.45258C1.15187 4.58471 1.24594 4.78042 1.41514 4.78042H12.5849C12.7541 4.78042 12.8481 4.58471 12.7424 4.45258L10.8053 2.03118C10.767 1.98332 10.709 1.95545 10.6477 1.95545H3.35226ZM2.24929 1.27486C2.51734 0.9398 2.92317 0.744751 3.35226 0.744751H10.6477C11.0768 0.744751 11.4827 0.939801 11.7507 1.27486L13.6878 3.69627C14.4277 4.62111 13.7692 5.99112 12.5849 5.99112H12.4482V12.65C12.4482 12.9843 12.1771 13.2553 11.8428 13.2553C11.5085 13.2553 11.2375 12.9843 11.2375 12.65V5.99112H10.0268V11.0357C10.0268 12.2616 9.033 13.2553 7.80714 13.2553H3.77146C2.5456 13.2553 1.55185 12.2616 1.55185 11.0357V5.99112H1.41514C0.230759 5.99112 -0.427704 4.62111 0.312171 3.69627L2.24929 1.27486ZM2.76255 5.99112V11.0357C2.76255 11.5929 3.21425 12.0446 3.77146 12.0446H7.80714C8.36434 12.0446 8.81605 11.5929 8.81605 11.0357V5.99112H7.80714V9.62323C7.80714 10.4033 7.17474 11.0357 6.39465 11.0357H5.18395C4.40385 11.0357 3.77146 10.4033 3.77146 9.62323V5.99112H2.76255ZM4.98216 5.99112V9.62323C4.98216 9.73467 5.07251 9.82501 5.18395 9.82501H6.39465C6.50609 9.82501 6.59643 9.73467 6.59643 9.62323V5.99112H4.98216Z" fill="black"/>
</g>
</g>
<defs>
<clipPath id="clip0_295_4734">
<rect width="14" height="14" fill="white"/>
</clipPath>
</defs>
</svg>

<svg xmlns="http://www.w3.org/2000/svg" fill="none" viewBox="0 0 14 14"><g clip-path="url(#a)"><path fill="#000" fill-rule="evenodd" d="M3.352 1.955a.2.2 0 0 0-.157.076L1.258 4.453a.202.202 0 0 0 .157.327h11.17c.17 0 .263-.195.157-.327L10.805 2.03a.2.2 0 0 0-.157-.076zm-1.103-.68c.268-.335.674-.53 1.103-.53h7.296c.429 0 .835.195 1.103.53l1.937 2.421c.74.925.081 2.295-1.103 2.295h-.137v6.659a.605.605 0 0 1-1.21 0V5.991h-1.211v5.045a2.22 2.22 0 0 1-2.22 2.22H3.771a2.22 2.22 0 0 1-2.22-2.22V5.99h-.136c-1.184 0-1.843-1.37-1.103-2.295zm.514 4.716v5.045c0 .557.451 1.009 1.008 1.009h4.036c.557 0 1.01-.452 1.01-1.01V5.992h-1.01v3.632c0 .78-.632 1.413-1.412 1.413H5.184c-.78 0-1.413-.633-1.413-1.413V5.991zm2.22 0v3.632c0 .112.09.202.201.202h1.21c.112 0 .202-.09.202-.202V5.991z" clip-rule="evenodd"/></g><defs><clipPath id="a"><path fill="#fff" d="M0 0h14v14H0z"/></clipPath></defs></svg>
